;FLAVOR:Marlin
;TIME:5380
;Filament used: 3.67586m
;Layer height: 0.2
;MINX:79
;MINY:39.263
;MINZ:0.2
;MAXX:141
;MAXY:140.438
;MAXZ:6.4
;Generated with Cura_SteamEngine 4.13.1
M140 S60
M105
M190 S60
M104 S200
M105
M109 S200
M82 ;absolute extrusion mode
; Ender 3 Custom Start G-code
G92 E0 ; Reset Extruder
G28 ; Home all axes
G1 Z2.0 F3000 ; Move Z Axis up little to prevent scratching of Heat Bed
G1 X0.1 Y20 Z0.3 F5000.0 ; Move to start position
G1 X0.1 Y200.0 Z0.3 F1500.0 E15 ; Draw the first line
G1 X0.4 Y200.0 Z0.3 F5000.0 ; Move to side a little
G1 X0.4 Y20 Z0.3 F1500.0 E30 ; Draw the second line
G92 E0 ; Reset Extruder
G1 Z2.0 F3000 ; Move Z Axis up little to prevent scratching of Heat Bed
G1 X5 Y20 Z0.3 F5000.0 ; Move over to prevent blob squish
G92 E0
G92 E0
G1 F1500 E-6.5
;LAYER_COUNT:32
;LAYER:0
M107
G0 F6000 X81.002 Y53.479 Z0.2
;TYPE:SKIRT
G1 F1500 E0
G1 F1200 X81.572 Y52.735 E0.03117
G1 X81.953 Y52.304 E0.05031
G1 X82.882 Y51.305 E0.09568
G1 X83.132 Y51.044 E0.1077
G1 X84.84 Y49.154 E0.19243
G1 X86.453 Y47.263 E0.2751
G1 X88.053 Y45.279 E0.35987
G1 X89.112 Y43.887 E0.41804
G1 X89.419 Y43.495 E0.4346
G1 X90.028 Y42.782 E0.46579
G1 X90.696 Y42.123 E0.497
G1 X91.417 Y41.524 E0.52818
G1 X92.187 Y40.988 E0.55938
G1 X93 Y40.52 E0.59058
G1 X93.849 Y40.123 E0.62175
G1 X94.73 Y39.799 E0.65297
G1 X95.634 Y39.552 E0.68414
G1 X96.557 Y39.383 E0.71535
G1 X97.614 Y39.287 E0.75065
G1 X97.945 Y39.273 E0.76167
G1 X98.41 Y39.263 E0.77714
G1 X129.293 Y39.263 E1.80432
G1 X130.149 Y39.274 E1.83279
G1 X131.085 Y39.328 E1.86397
G1 X132.013 Y39.46 E1.89515
G1 X132.927 Y39.672 E1.92635
G1 X133.819 Y39.961 E1.95754
G1 X134.684 Y40.324 E1.98874
G1 X135.514 Y40.76 E2.01992
G1 X136.305 Y41.265 E2.05114
G1 X137.049 Y41.836 E2.08233
G1 X137.742 Y42.468 E2.11353
G1 X138.379 Y43.156 E2.14471
G1 X138.954 Y43.897 E2.17591
G1 X139.465 Y44.683 E2.20709
G1 X139.907 Y45.511 E2.23831
G1 X140.276 Y46.373 E2.26949
G1 X140.571 Y47.263 E2.30068
G1 X140.789 Y48.175 E2.33187
G1 X140.929 Y49.103 E2.36308
G1 X140.987 Y49.964 E2.39178
G1 X140.996 Y50.284 E2.40243
G1 X141 Y50.593 E2.41271
G1 X141 Y89.174 E3.69592
G1 X140.996 Y90.283 E3.7328
G1 X141 Y90.821 E3.7507
G1 X140.999 Y128.838 E5.01515
G1 X140.99 Y129.565 E5.03933
G1 X140.939 Y130.502 E5.07054
G1 X140.807 Y131.43 E5.10172
G1 X140.598 Y132.344 E5.1329
G1 X140.311 Y133.237 E5.1641
G1 X139.949 Y134.103 E5.19532
G1 X139.515 Y134.934 E5.2265
G1 X139.011 Y135.725 E5.25769
G1 X138.442 Y136.47 E5.28887
G1 X137.811 Y137.165 E5.32009
G1 X137.124 Y137.803 E5.35128
G1 X136.385 Y138.38 E5.38246
G1 X135.599 Y138.892 E5.41366
G1 X134.773 Y139.335 E5.44484
G1 X133.911 Y139.707 E5.47606
G1 X133.022 Y140.003 E5.50723
G1 X132.11 Y140.223 E5.53843
G1 X131.183 Y140.364 E5.56962
G1 X130.299 Y140.425 E5.59909
G1 X129.978 Y140.434 E5.60977
G1 X129.67 Y140.438 E5.62001
G1 X90.565 Y140.437 E6.92065
G1 X89.867 Y140.428 E6.94387
G1 X88.931 Y140.376 E6.97505
G1 X88.002 Y140.244 E7.00626
G1 X87.088 Y140.034 E7.03745
G1 X86.195 Y139.747 E7.06865
G1 X85.33 Y139.384 E7.09985
G1 X84.499 Y138.95 E7.13103
G1 X83.708 Y138.446 E7.16222
G1 X82.963 Y137.876 E7.19342
G1 X82.269 Y137.245 E7.22462
G1 X81.632 Y136.558 E7.25578
G1 X81.055 Y135.818 E7.28699
G1 X80.543 Y135.032 E7.31819
G1 X80.1 Y134.205 E7.3494
G1 X79.729 Y133.344 E7.38058
G1 X79.433 Y132.454 E7.41177
G1 X79.214 Y131.542 E7.44297
G1 X79.073 Y130.615 E7.47416
G1 X79.013 Y129.726 E7.50379
G1 X79.004 Y129.393 E7.51487
G1 X79 Y129.096 E7.52475
G1 X79.001 Y121.992 E7.76103
G1 X79.024 Y120.341 E7.81595
G1 X79.047 Y119.521 E7.84323
G1 X79.049 Y116.947 E7.92884
G1 X79.019 Y115.565 E7.97482
G1 X79.005 Y115.091 E7.99059
G1 X79 Y114.766 E8.0014
G1 X79.001 Y100.643 E8.47114
G1 X79.011 Y99.914 E8.49539
G1 X79.02 Y99.597 E8.50593
G1 X79.07 Y98.414 E8.54531
G1 X79.145 Y95.776 E8.63309
G1 X79.145 Y93.287 E8.71588
G1 X79.072 Y90.698 E8.80202
G1 X79.027 Y89.809 E8.83163
G1 X79.018 Y89.575 E8.83941
G1 X79.005 Y89.126 E8.85435
G1 X79 Y88.808 E8.86493
G1 X79.001 Y81.692 E9.10161
G1 X79.024 Y80.041 E9.15653
G1 X79.047 Y79.221 E9.18381
G1 X79.049 Y76.647 E9.26943
G1 X79.019 Y75.265 E9.3154
G1 X79.005 Y74.791 E9.33117
G1 X79 Y74.466 E9.34198
G1 X79.001 Y60.337 E9.81192
G1 X79.011 Y59.635 E9.83527
G1 X79.064 Y58.699 E9.86645
G1 X79.197 Y57.771 E9.89763
G1 X79.409 Y56.857 E9.92884
G1 X79.697 Y55.964 E9.96004
G1 X80.061 Y55.1 E9.99123
G1 X80.497 Y54.269 E10.02244
G1 X81.002 Y53.479 E10.05363
G0 F6000 X81.398 Y53.612
G1 F1200 X82.246 Y52.576 E10.09815
G1 X83.171 Y51.582 E10.14332
G1 X83.435 Y51.306 E10.15602
G1 X85.11 Y49.453 E10.2391
G1 X86.772 Y47.505 E10.32426
G1 X88.35 Y45.548 E10.40788
G1 X89.427 Y44.133 E10.46702
G1 X89.734 Y43.741 E10.48358
G1 X90.332 Y43.042 E10.51418
G1 X90.989 Y42.397 E10.5448
G1 X91.7 Y41.811 E10.57545
G1 X92.458 Y41.29 E10.60604
G1 X93.26 Y40.836 E10.63669
G1 X94.097 Y40.453 E10.66731
G1 X94.964 Y40.145 E10.69791
G1 X95.855 Y39.913 E10.72853
G1 X96.763 Y39.759 E10.75916
G1 X97.631 Y39.686 E10.78813
G1 X97.962 Y39.672 E10.79915
G1 X98.41 Y39.663 E10.81406
G1 X129.293 Y39.663 E11.84123
G1 X130.143 Y39.674 E11.8695
G1 X131.062 Y39.727 E11.90012
G1 X131.973 Y39.86 E11.93074
G1 X132.869 Y40.071 E11.96136
G1 X133.743 Y40.359 E11.99196
G1 X134.59 Y40.722 E12.02261
G1 X135.401 Y41.157 E12.05322
G1 X136.171 Y41.661 E12.08383
G1 X136.895 Y42.23 E12.11446
G1 X137.567 Y42.86 E12.1451
G1 X138.182 Y43.545 E12.17571
G1 X138.735 Y44.281 E12.20633
G1 X139.222 Y45.062 E12.23695
G1 X139.639 Y45.883 E12.26757
G1 X139.984 Y46.737 E12.29821
G1 X140.253 Y47.617 E12.32881
G1 X140.445 Y48.518 E12.35945
G1 X140.558 Y49.431 E12.39005
G1 X140.587 Y49.975 E12.40817
G1 X140.596 Y50.295 E12.41882
G1 X140.6 Y50.593 E12.42873
G1 X140.6 Y89.173 E13.71191
G1 X140.596 Y90.286 E13.74893
G1 X140.6 Y90.824 E13.76682
G1 X140.599 Y128.833 E15.031
G1 X140.59 Y129.56 E15.05519
G1 X140.539 Y130.479 E15.0858
G1 X140.408 Y131.391 E15.11644
G1 X140.198 Y132.287 E15.14705
G1 X139.912 Y133.162 E15.17767
G1 X139.551 Y134.009 E15.20829
G1 X139.117 Y134.821 E15.23892
G1 X138.615 Y135.593 E15.26954
G1 X138.047 Y136.318 E15.30018
G1 X137.419 Y136.991 E15.33079
G1 X136.735 Y137.607 E15.36141
G1 X136 Y138.161 E15.39202
G1 X135.22 Y138.65 E15.42264
G1 X134.4 Y139.069 E15.45327
G1 X133.547 Y139.415 E15.48388
G1 X132.667 Y139.686 E15.51451
G1 X131.767 Y139.879 E15.54512
G1 X130.853 Y139.994 E15.57576
G1 X130.288 Y140.025 E15.59458
G1 X129.967 Y140.034 E15.60526
G1 X129.67 Y140.038 E15.61514
G1 X90.57 Y140.037 E16.91562
G1 X89.872 Y140.028 E16.93883
G1 X88.953 Y139.976 E16.96945
G1 X88.042 Y139.845 E17.00006
G1 X87.146 Y139.635 E17.03067
G1 X86.271 Y139.348 E17.0613
G1 X85.424 Y138.986 E17.09193
G1 X84.612 Y138.552 E17.12256
G1 X83.841 Y138.05 E17.15316
G1 X83.116 Y137.482 E17.18379
G1 X82.443 Y136.853 E17.21443
G1 X81.828 Y136.169 E17.24502
G1 X81.274 Y135.434 E17.27563
G1 X80.786 Y134.653 E17.30626
G1 X80.367 Y133.833 E17.33689
G1 X80.021 Y132.98 E17.36751
G1 X79.751 Y132.1 E17.39812
G1 X79.558 Y131.199 E17.42877
G1 X79.444 Y130.286 E17.45937
G1 X79.413 Y129.715 E17.47839
G1 X79.404 Y129.382 E17.48947
G1 X79.4 Y129.096 E17.49898
G1 X79.401 Y121.997 E17.7351
G1 X79.424 Y120.346 E17.79002
G1 X79.447 Y119.533 E17.81707
G1 X79.449 Y116.939 E17.90334
G1 X79.417 Y115.471 E17.95218
G1 X79.405 Y115.079 E17.96523
G1 X79.4 Y114.766 E17.97564
G1 X79.401 Y100.649 E18.44517
G1 X79.411 Y99.92 E18.46942
G1 X79.42 Y99.614 E18.4796
G1 X79.47 Y98.443 E18.51858
G1 X79.545 Y95.787 E18.60696
G1 X79.545 Y93.276 E18.69048
G1 X79.472 Y90.712 E18.77579
G1 X79.426 Y89.789 E18.80653
G1 X79.417 Y89.564 E18.81402
G1 X79.404 Y89.115 E18.82896
G1 X79.4 Y88.808 E18.83917
G1 X79.401 Y81.697 E19.07568
G1 X79.424 Y80.046 E19.1306
G1 X79.447 Y79.233 E19.15765
G1 X79.449 Y76.639 E19.24393
G1 X79.417 Y75.171 E19.29276
G1 X79.405 Y74.779 E19.30581
G1 X79.4 Y74.466 E19.31622
G1 X79.401 Y60.343 E19.78595
G1 X79.411 Y59.641 E19.8093
G1 X79.464 Y58.722 E19.83992
G1 X79.597 Y57.811 E19.87054
G1 X79.808 Y56.915 E19.90116
G1 X80.096 Y56.04 E19.9318
G1 X80.459 Y55.194 E19.96241
G1 X80.894 Y54.383 E19.99302
G1 X81.398 Y53.612 E20.02366
G0 F6000 X81.794 Y53.748
G1 F1200 X82.539 Y52.848 E20.06252
G1 X83.46 Y51.858 E20.10749
G1 X83.738 Y51.568 E20.12085
G1 X85.41 Y49.718 E20.20379
G1 X87.072 Y47.77 E20.28896
G1 X88.664 Y45.796 E20.37331
G1 X89.651 Y44.497 E20.42757
G1 X90.049 Y43.988 E20.44906
G1 X90.636 Y43.302 E20.47909
G1 X91.282 Y42.671 E20.50912
G1 X91.982 Y42.1 E20.53917
G1 X92.729 Y41.593 E20.5692
G1 X93.518 Y41.153 E20.59924
G1 X94.343 Y40.786 E20.62928
G1 X95.197 Y40.493 E20.6593
G1 X96.074 Y40.276 E20.68935
G1 X96.966 Y40.138 E20.71937
G1 X97.648 Y40.086 E20.74212
G1 X97.979 Y40.072 E20.75314
G1 X98.41 Y40.063 E20.76748
G1 X129.293 Y40.063 E21.79465
G1 X130.137 Y40.074 E21.82273
G1 X131.039 Y40.127 E21.85278
G1 X131.932 Y40.259 E21.8828
G1 X132.81 Y40.47 E21.91284
G1 X133.666 Y40.758 E21.94288
G1 X134.493 Y41.12 E21.9729
G1 X135.285 Y41.555 E22.00296
G1 X136.036 Y42.057 E22.033
G1 X136.739 Y42.624 E22.06304
G1 X137.389 Y43.251 E22.09308
G1 X137.981 Y43.933 E22.12312
G1 X138.511 Y44.664 E22.15315
G1 X138.973 Y45.44 E22.18318
G1 X139.366 Y46.253 E22.21322
G1 X139.684 Y47.098 E22.24325
G1 X139.927 Y47.968 E22.27329
G1 X140.092 Y48.856 E22.30333
G1 X140.187 Y49.986 E22.34105
G1 X140.196 Y50.306 E22.3517
G1 X140.2 Y50.593 E22.36124
G1 X140.2 Y89.171 E23.64435
G1 X140.196 Y90.289 E23.68154
G1 X140.2 Y90.827 E23.69943
G1 X140.199 Y128.828 E24.96335
G1 X140.19 Y129.555 E24.98753
G1 X140.139 Y130.457 E25.01758
G1 X140.008 Y131.351 E25.04763
G1 X139.799 Y132.229 E25.07765
G1 X139.513 Y133.086 E25.1077
G1 X139.152 Y133.914 E25.13774
G1 X138.72 Y134.706 E25.16775
G1 X138.219 Y135.458 E25.1978
G1 X137.653 Y136.162 E25.22785
G1 X137.028 Y136.813 E25.25786
G1 X136.347 Y137.407 E25.28792
G1 X135.616 Y137.938 E25.31797
G1 X134.842 Y138.402 E25.34798
G1 X134.029 Y138.796 E25.37803
G1 X133.185 Y139.116 E25.40805
G1 X132.315 Y139.361 E25.43812
G1 X131.428 Y139.527 E25.46813
G1 X130.277 Y139.625 E25.50655
G1 X129.956 Y139.634 E25.51723
G1 X129.67 Y139.638 E25.52675
G1 X90.575 Y139.637 E26.82705
G1 X89.877 Y139.628 E26.85027
G1 X88.976 Y139.577 E26.88028
G1 X88.082 Y139.445 E26.91034
G1 X87.204 Y139.236 E26.94036
G1 X86.347 Y138.949 E26.97042
G1 X85.52 Y138.588 E27.00043
G1 X84.727 Y138.155 E27.03048
G1 X83.976 Y137.654 E27.06051
G1 X83.272 Y137.088 E27.09055
G1 X82.621 Y136.462 E27.12059
G1 X82.028 Y135.781 E27.15063
G1 X81.498 Y135.05 E27.18066
G1 X81.034 Y134.275 E27.2107
G1 X80.64 Y133.462 E27.24075
G1 X80.32 Y132.618 E27.27077
G1 X80.076 Y131.748 E27.30082
G1 X79.91 Y130.86 E27.33087
G1 X79.813 Y129.705 E27.36942
G1 X79.804 Y129.372 E27.3805
G1 X79.8 Y129.096 E27.38968
G1 X79.801 Y122.003 E27.62559
G1 X79.827 Y120.194 E27.68577
G1 X79.847 Y119.51 E27.70853
G1 X79.849 Y116.975 E27.79284
G1 X79.816 Y115.462 E27.84318
G1 X79.804 Y115.067 E27.85632
G1 X79.8 Y114.766 E27.86633
G1 X79.801 Y100.654 E28.3357
G1 X79.811 Y99.925 E28.35995
G1 X79.819 Y99.631 E28.36973
G1 X79.871 Y98.402 E28.41064
G1 X79.945 Y95.798 E28.49729
G1 X79.945 Y93.265 E28.58154
G1 X79.872 Y90.681 E28.66752
G1 X79.826 Y89.769 E28.69789
G1 X79.817 Y89.552 E28.70511
G1 X79.804 Y89.103 E28.72005
G1 X79.8 Y88.808 E28.72986
G1 X79.801 Y81.703 E28.96618
G1 X79.827 Y79.894 E29.02635
G1 X79.847 Y79.21 E29.04911
G1 X79.849 Y76.675 E29.13342
G1 X79.816 Y75.162 E29.18376
G1 X79.804 Y74.767 E29.1969
G1 X79.8 Y74.466 E29.20692
G1 X79.801 Y60.349 E29.67645
G1 X79.811 Y59.647 E29.6998
G1 X79.864 Y58.745 E29.72985
G1 X79.996 Y57.852 E29.75988
G1 X80.207 Y56.974 E29.78991
G1 X80.495 Y56.118 E29.81995
G1 X80.857 Y55.29 E29.85
G1 X81.291 Y54.498 E29.88004
G1 X81.794 Y53.748 E29.91008
G1 F1500 E23.41008
;MESH:SwitchMount.STL(1)
G0 F6000 X89.347 Y75.44
G0 X106.29 Y75.439
G0 X114.272 Y82.505
G0 X112.893 Y82.022
G0 X113.231 Y83.531
G0 X113.576 Y84.147
G0 X114.007 Y84.524
G0 X115.109 Y85.081
;TYPE:WALL-INNER
G1 F1500 E29.91008
G1 F1200 X115.492 Y85.063 E29.92283
G1 X115.864 Y84.983 E29.93549
G1 X116.219 Y84.839 E29.94823
G1 X116.543 Y84.637 E29.96093
G1 X116.829 Y84.385 E29.97361
G1 X117.069 Y84.086 E29.98636
G1 X117.254 Y83.752 E29.99906
G1 X117.38 Y83.392 E30.01174
G1 X117.444 Y83.017 E30.0244
G1 X117.444 Y82.634 E30.03713
G1 X117.378 Y82.258 E30.04983
G1 X117.25 Y81.897 E30.06257
G1 X117.062 Y81.564 E30.07529
G1 X116.822 Y81.269 E30.08794
G1 X116.535 Y81.016 E30.10066
G1 X116.209 Y80.818 E30.11335
G1 X115.854 Y80.676 E30.12607
G1 X115.482 Y80.597 E30.13872
G1 X115.1 Y80.58 E30.15143
G1 X114.719 Y80.63 E30.16421
G1 X114.356 Y80.743 E30.17686
G1 X114.014 Y80.915 E30.18959
G1 X113.708 Y81.145 E30.20232
G1 X113.444 Y81.42 E30.215
G1 X113.232 Y81.738 E30.22771
G1 X113.074 Y82.086 E30.24043
G1 X112.98 Y82.455 E30.25309
G1 X112.947 Y82.83 E30.26561
G1 X112.982 Y83.216 E30.2785
G1 X113.079 Y83.586 E30.29122
G1 X113.237 Y83.932 E30.30388
G1 X113.451 Y84.249 E30.3166
G1 X113.717 Y84.524 E30.32932
G1 X114.025 Y84.751 E30.34205
G1 X114.367 Y84.921 E30.35475
G1 X114.729 Y85.031 E30.36733
G1 X115.109 Y85.081 E30.38008
G0 F6000 X115.126 Y84.68
;TYPE:WALL-OUTER
G1 F1200 X115.44 Y84.665 E30.39054
G1 X115.746 Y84.599 E30.40095
G1 X116.037 Y84.481 E30.41139
G1 X116.304 Y84.315 E30.42185
G1 X116.539 Y84.108 E30.43227
G1 X116.736 Y83.862 E30.44275
G1 X116.888 Y83.588 E30.45317
G1 X116.991 Y83.292 E30.46359
G1 X117.044 Y82.983 E30.47402
G1 X117.044 Y82.669 E30.48447
G1 X116.99 Y82.36 E30.4949
G1 X116.885 Y82.064 E30.50534
G1 X116.73 Y81.79 E30.51581
G1 X116.533 Y81.547 E30.52622
G1 X116.297 Y81.34 E30.53666
G1 X116.029 Y81.177 E30.54709
G1 X115.737 Y81.06 E30.55756
G1 X115.431 Y80.995 E30.56796
G1 X115.117 Y80.981 E30.57841
G1 X114.805 Y81.022 E30.58888
G1 X114.506 Y81.115 E30.5993
G1 X114.226 Y81.256 E30.60972
G1 X113.974 Y81.445 E30.6202
G1 X113.757 Y81.671 E30.63062
G1 X113.583 Y81.933 E30.64108
G1 X113.453 Y82.219 E30.65153
G1 X113.376 Y82.522 E30.66193
G1 X113.349 Y82.83 E30.67221
G1 X113.377 Y83.147 E30.6828
G1 X113.457 Y83.451 E30.69325
G1 X113.587 Y83.736 E30.70367
G1 X113.763 Y83.996 E30.71411
G1 X113.981 Y84.222 E30.72456
G1 X114.234 Y84.408 E30.735
G1 X114.515 Y84.548 E30.74544
G1 X114.814 Y84.639 E30.75584
G1 X115.126 Y84.68 E30.7663
G0 F6000 X115.108 Y85.119
G1 F1500 E24.2663
G0 F6000 X116.967 Y84.518
G0 X115.913 Y83.508
G0 X123.937 Y83.45
G0 X123.091 Y84.668
G0 X124.609 Y85.081
;TYPE:WALL-INNER
G1 F1500 E30.7663
G1 F1200 X124.992 Y85.063 E30.77906
G1 X125.364 Y84.983 E30.79171
G1 X125.719 Y84.839 E30.80445
G1 X126.043 Y84.637 E30.81715
G1 X126.329 Y84.385 E30.82983
G1 X126.569 Y84.086 E30.84258
G1 X126.754 Y83.752 E30.85528
G1 X126.88 Y83.392 E30.86797
G1 X126.944 Y83.017 E30.88062
G1 X126.944 Y82.634 E30.89336
G1 X126.878 Y82.258 E30.90606
G1 X126.75 Y81.897 E30.9188
G1 X126.562 Y81.564 E30.93152
G1 X126.322 Y81.269 E30.94416
G1 X126.035 Y81.016 E30.95689
G1 X125.709 Y80.818 E30.96958
G1 X125.354 Y80.676 E30.98229
G1 X124.982 Y80.597 E30.99494
G1 X124.6 Y80.58 E31.00766
G1 X124.219 Y80.63 E31.02044
G1 X123.856 Y80.743 E31.03308
G1 X123.514 Y80.915 E31.04582
G1 X123.208 Y81.145 E31.05855
G1 X122.944 Y81.42 E31.07123
G1 X122.732 Y81.738 E31.08394
G1 X122.574 Y82.086 E31.09665
G1 X122.48 Y82.455 E31.10932
G1 X122.447 Y82.83 E31.12184
G1 X122.482 Y83.216 E31.13473
G1 X122.579 Y83.586 E31.14745
G1 X122.737 Y83.932 E31.1601
G1 X122.951 Y84.249 E31.17282
G1 X123.217 Y84.524 E31.18555
G1 X123.525 Y84.751 E31.19827
G1 X123.867 Y84.921 E31.21098
G1 X124.229 Y85.031 E31.22356
G1 X124.609 Y85.081 E31.23631
G0 F6000 X124.626 Y84.68
;TYPE:WALL-OUTER
G1 F1200 X124.94 Y84.665 E31.24676
G1 X125.246 Y84.599 E31.25718
G1 X125.537 Y84.481 E31.26762
G1 X125.804 Y84.315 E31.27808
G1 X126.039 Y84.108 E31.28849
G1 X126.236 Y83.862 E31.29897
G1 X126.388 Y83.588 E31.3094
G1 X126.491 Y83.292 E31.31982
G1 X126.544 Y82.983 E31.33025
G1 X126.544 Y82.669 E31.34069
G1 X126.49 Y82.36 E31.35112
G1 X126.385 Y82.064 E31.36157
G1 X126.23 Y81.79 E31.37204
G1 X126.033 Y81.547 E31.38245
G1 X125.797 Y81.34 E31.39289
G1 X125.529 Y81.177 E31.40332
G1 X125.237 Y81.06 E31.41378
G1 X124.931 Y80.995 E31.42419
G1 X124.617 Y80.981 E31.43464
G1 X124.305 Y81.022 E31.44511
